X: 7538
T: Cock And The Hen, The
R: slip jig
M: 9/8
K: Aminor
|:gec cde f3|gec cde fdB|gec cde f3|e2c e2A cAG:|
|:AcA AGA f3|AcA AGA cAG|AcA AGA f3|e2c e2A cAG:|

